img/svg/icon-font/phone-call.svg

<svg width="22" height="22" viewBox="0 0 22 22" fill="none" xmlns="http://www.w3.org/2000/svg">
<g clip-path="url(#clip0)">
<path d="M21.9978 17.7264C21.9671 16.8754 21.6126 16.0812 20.9997 15.4902C19.7995 14.3329 18.794 13.6648 17.8352 13.3878C16.5141 13.006 15.2903 13.3531 14.1983 14.4197C14.1966 14.4213 14.195 14.4229 14.1934 14.4246L13.0315 15.5778C12.3054 15.1684 10.8934 14.2697 9.36792 12.7442L9.25483 12.6312C7.72909 11.1055 6.8304 9.69333 6.42147 8.96801L7.57475 7.80609C7.57638 7.80446 7.57801 7.80283 7.57965 7.80115C8.64617 6.70914 8.99336 5.48548 8.61159 4.16424C8.33448 3.20547 7.66644 2.19992 6.50912 0.999759C5.91813 0.386895 5.12403 0.0324031 4.27303 0.00172344C3.42152 -0.0289992 2.60443 0.267399 1.97072 0.83622L1.94606 0.858391C1.93463 0.868661 1.92346 0.879274 1.91254 0.890145C0.651023 2.15166 -0.0102662 3.91772 8.92612e-05 5.99745C0.0177494 9.53043 1.95946 13.5707 5.19411 16.8053C5.80405 17.4152 6.49726 18.0189 7.25446 18.5995C7.63108 18.8882 8.17051 18.8171 8.4593 18.4404C8.74814 18.0637 8.6769 17.5243 8.30023 17.2355C7.60264 16.7006 6.96648 16.147 6.40944 15.5901C3.48773 12.6684 1.73422 9.07917 1.7188 5.9889C1.71085 4.3872 2.19266 3.05031 3.11232 2.12107L3.11889 2.11514C3.74353 1.55444 4.68923 1.58856 5.27197 2.19283C7.49685 4.50016 7.33576 5.58947 6.35263 6.5976L4.75961 8.20257C4.50979 8.45428 4.44022 8.83361 4.58447 9.15759C4.6249 9.24843 5.60326 11.4103 8.0398 13.8469L8.15294 13.9598C10.5892 16.3961 12.7511 17.3744 12.8419 17.4149C13.1658 17.5592 13.5453 17.4896 13.7969 17.2398L15.4019 15.6467C16.4102 14.6635 17.4995 14.5025 19.8067 16.7274C20.411 17.3101 20.4451 18.2558 19.8845 18.8803L19.8784 18.8871C18.9568 19.7993 17.6341 20.2807 16.0499 20.2807C16.0368 20.2807 16.0237 20.2807 16.0106 20.2806C14.7443 20.2743 13.2779 19.9272 11.7701 19.2768C11.3344 19.0887 10.8286 19.2897 10.6407 19.7255C10.4527 20.1613 10.6535 20.667 11.0894 20.855C12.8323 21.6068 14.4851 21.9918 16.0021 21.9994C16.0182 21.9994 16.0342 21.9994 16.0503 21.9994C18.1091 21.9994 19.8576 21.3386 21.1094 20.0869C21.1203 20.076 21.1308 20.0649 21.1411 20.0534L21.1634 20.0286C21.7322 19.3949 22.0285 18.5773 21.9978 17.7264Z" fill="#4C51CB"/>
</g>
<defs>
<clipPath id="clip0">
<rect width="22" height="22" fill="white"/>
</clipPath>
</defs>
</svg>

<svg width="22" height="22" fill="none" xmlns="http://www.w3.org/2000/svg"><g clip-path="url(#clip0)"><path d="M21.998 17.726A3.255 3.255 0 0021 15.49c-1.2-1.157-2.206-1.825-3.165-2.102-1.32-.382-2.545-.035-3.637 1.032a.113.113 0 00-.005.005l-1.162 1.153c-.726-.41-2.138-1.308-3.663-2.834l-.113-.113C7.729 11.105 6.83 9.693 6.42 8.968l1.154-1.162a.574.574 0 00.005-.005C8.646 6.71 8.993 5.485 8.612 4.164 8.334 3.205 7.666 2.2 6.509 1A3.254 3.254 0 004.273.002a3.253 3.253 0 00-2.302.834l-.025.022a.903.903 0 00-.033.032C.65 2.152-.01 3.918 0 5.997c.018 3.533 1.96 7.574 5.194 10.808.61.61 1.303 1.214 2.06 1.794A.86.86 0 008.3 17.235a19.243 19.243 0 01-1.89-1.645c-2.923-2.922-4.677-6.51-4.692-9.6-.008-1.603.475-2.94 1.394-3.87l.007-.006a1.546 1.546 0 012.153.078C7.497 4.5 7.336 5.589 6.352 6.598L4.76 8.203a.86.86 0 00-.176.955c.04.09 1.02 2.252 3.456 4.689l.113.113c2.436 2.436 4.598 3.414 4.689 3.455a.86.86 0 00.955-.175l1.605-1.593c1.008-.983 2.098-1.145 4.405 1.08.604.583.638 1.529.078 2.153l-.007.007c-.921.912-2.244 1.394-3.828 1.394h-.04c-1.266-.007-2.732-.354-4.24-1.004a.86.86 0 10-.68 1.578c1.742.752 3.395 1.137 4.912 1.144h.048c2.06 0 3.808-.66 5.06-1.912a.836.836 0 00.031-.034l.022-.024a3.254 3.254 0 00.835-2.303z" fill="#4C51CB"/></g><defs><clipPath id="clip0"><path fill="#fff" d="M0 0h22v22H0z"/></clipPath></defs></svg>
